X:14
T:Blackbird
Z: id:dc-reel-15
M:C
L:1/8
K:D Mixolydian
GA|B2cB A2B^c|d2AG F2DE|FGAF GcAG|F2D2 D2:|!
FG|Add^c d2eg|fded cAGc|Add^c dfag|f2d2 d2fe|!
dcAF GAB^c|d2AG F2DE|FGAF GcAG|F2D2 D2:|!

